static/assets/images/addons/logos/mysql.svg

<svg width="16" height="16" viewBox="0 0 16 16" fill="none" xmlns="http://www.w3.org/2000/svg">
<g clip-path="url(#clip0_703_2650)">
<path d="M8.09145 3.33995C7.97805 3.3154 7.8596 3.33177 7.7571 3.38615C7.6546 3.44053 7.57465 3.52943 7.53145 3.63709C7.30285 4.07138 7.69145 4.56281 7.82855 4.77995C7.9344 4.95752 8.02245 5.1451 8.09145 5.33995C8.09145 5.46565 8.09145 5.57995 8.16 5.70565C8.24 6.02565 8.29715 6.37995 8.4 6.6771C8.45295 6.83425 8.5179 6.98705 8.5943 7.13425C8.5943 7.21425 8.73145 7.25995 8.73145 7.38565C8.64625 7.54465 8.581 7.71355 8.53715 7.88855C8.2414 8.6454 8.2414 9.4859 8.53715 10.2428C8.62855 10.4256 8.8343 10.8256 9.17715 10.7228C9.52 10.6199 9.46285 10.2199 9.57715 9.8771C9.57715 9.8085 9.57715 9.73995 9.6457 9.69425C9.7143 9.89995 9.78285 10.0942 9.86285 10.2999C10.0524 10.6749 10.2992 11.0181 10.5943 11.3171C10.7429 11.4542 10.8572 11.6371 11.0286 11.7742C11.2 11.9114 11.1428 12.0942 13.44 13.1914C13.44 13.1914 14.3428 13.6142 14.8115 13.8199C15.219 13.9901 15.6393 14.1277 16.0686 14.2314C16.0686 14.1514 16.0686 14.0599 15.9886 13.9914L15.8172 13.7628C15.6539 13.4826 15.4497 13.2284 15.2114 13.0085C15.0285 12.8256 14.5943 12.5628 14.5372 12.3114C14.6907 12.3036 14.8435 12.2845 14.9943 12.2542C15.2228 12.2542 15.4172 12.2542 15.6457 12.2542L15.9657 12.1856V12.0828C15.8798 11.9284 15.7844 11.7796 15.68 11.6371C15.3583 11.2805 15.0107 10.9481 14.64 10.6428C14.4337 10.495 14.22 10.3577 14 10.2314C13.9314 10.2314 13.8057 10.1514 13.76 10.0714C13.6753 9.8871 13.6065 9.69595 13.5543 9.49995C13.4057 9.09995 13.2685 8.66565 13.1428 8.2428C13.0818 7.96335 13.0016 7.6884 12.9029 7.41995C12.4179 6.2757 11.627 5.2872 10.6172 4.56281C10.371 4.40034 10.1011 4.27697 9.81715 4.19709L9.33715 4.11709C9.2457 4.11709 9.1543 3.91138 9.06285 3.84281C8.77515 3.57998 8.425 3.39508 8.0457 3.30566L8.09145 3.33995ZM9.62285 4.59709C9.7257 4.59709 9.78285 4.69995 9.86285 4.77995C9.9141 4.85119 9.94825 4.93328 9.96265 5.01985C9.97705 5.1064 9.9713 5.19515 9.9459 5.27915C9.9205 5.36315 9.87605 5.44015 9.81605 5.5042C9.7561 5.56825 9.68215 5.61765 9.6 5.6485C9.5445 5.3909 9.4397 5.1464 9.29145 4.92852C9.09715 4.76852 9.29145 4.56281 9.5657 4.61995L9.62285 4.59709ZM10.8229 12.4599L10.6857 12.3456C10.5599 12.2393 10.445 12.1206 10.3428 11.9914C10.3018 11.9171 10.2519 11.848 10.1943 11.7856L9.98855 11.5685C8.6274 12.1012 7.17585 12.3651 5.7143 12.3456C2.53715 12.3456 0 11.4085 0 10.2542V12.7571C0 13.8999 2.53715 14.8485 5.7143 14.8485C8.89145 14.8485 11.2457 13.9571 11.4285 12.8485C11.2488 12.7405 11.0837 12.6099 10.9372 12.4599H10.8229Z" fill="#1971BD"/>
<path d="M7.8857 10.5286C7.6276 9.86644 7.5719 9.14249 7.7257 8.44859C7.05915 8.54019 6.3871 8.58604 5.7143 8.58574C2.53715 8.58574 0 7.66004 0 6.50574V9.00859C0 10.1515 2.53715 11.0886 5.7143 11.0886C6.52975 11.0924 7.34405 11.0274 8.14855 10.8943C8.05305 10.7783 7.9652 10.6561 7.8857 10.5286Z" fill="#1971BD"/>
<path d="M7.7943 6.62C7.706 6.3579 7.6335 6.09075 7.57715 5.82C7.5836 5.72105 7.5836 5.6218 7.57715 5.52285C7.567 5.45085 7.567 5.37775 7.57715 5.3057V5.1343C7.5226 4.98694 7.4537 4.8453 7.37145 4.71143L7.17715 4.58571C7.1548 4.53762 7.128 4.49171 7.09715 4.44857C6.94045 4.24749 6.8364 4.01047 6.7945 3.75901C6.7526 3.50755 6.77415 3.2496 6.85715 3.00857C6.9369 2.83702 7.07045 2.6962 7.23755 2.6075C7.4046 2.5188 7.5961 2.48707 7.78285 2.51714C8.26215 2.61677 8.7049 2.84606 9.06285 3.18C9.119 3.23044 9.1724 3.28385 9.22285 3.34L9.29145 3.42L9.7943 3.51143H9.90855C10.2101 3.60404 10.4953 3.74283 10.7543 3.92285C10.9486 4.07143 11.1314 4.24285 11.3257 4.40285V3.58C11.3257 2.43714 8.78855 1.5 5.7143 1.5C2.64 1.5 0 2.43714 0 3.58V5.24855C0 6.39145 2.53715 7.34 5.7143 7.34C6.48025 7.3385 7.24475 7.2735 8 7.1457C7.9075 6.97805 7.83095 6.802 7.77145 6.62H7.7943Z" fill="#1971BD"/>
</g>
<defs>
<clipPath id="clip0_703_2650">
<rect width="16" height="16" fill="white"/>
</clipPath>
</defs>
</svg>

<svg xmlns="http://www.w3.org/2000/svg" width="16" height="16" fill="none" xmlns:v="https://vecta.io/nano"><g clip-path="url(#A)" fill="#1971bd"><path d="M8.091 3.34a.49.49 0 0 0-.56.297c-.229.434.16.926.297 1.143a3.14 3.14 0 0 1 .263.56c0 .126 0 .24.069.366l.24.971a3.28 3.28 0 0 0 .194.457c0 .08.137.126.137.251a2.21 2.21 0 0 0-.194.503 3.23 3.23 0 0 0 0 2.354c.091.183.297.583.64.48s.286-.503.4-.846c0-.069 0-.137.069-.183l.217.606a4.06 4.06 0 0 0 .731 1.017c.149.137.263.32.434.457s.114.32 2.411 1.417l1.372.629c.407.17.828.308 1.257.412 0-.08 0-.171-.08-.24l-.171-.229a3.26 3.26 0 0 0-.606-.754c-.183-.183-.617-.446-.674-.697.153-.008.306-.027.457-.057h.651l.32-.069v-.103a4.25 4.25 0 0 0-.286-.446 9.74 9.74 0 0 0-1.04-.994l-.64-.411c-.069 0-.194-.08-.24-.16a3.6 3.6 0 0 1-.206-.571l-.412-1.257c-.061-.279-.141-.554-.24-.823-.485-1.144-1.276-2.133-2.286-2.857a2.86 2.86 0 0 0-.8-.366l-.48-.08c-.091 0-.183-.206-.274-.274a2.28 2.28 0 0 0-1.017-.537l.046.034zm1.531 1.257c.103 0 .16.103.24.183a.57.57 0 0 1-.263.868 2.04 2.04 0 0 0-.309-.72c-.194-.16 0-.366.274-.309l.057-.023zm1.2 7.863l-.137-.114a2.47 2.47 0 0 1-.343-.354 1.07 1.07 0 0 0-.149-.206l-.206-.217a11.3 11.3 0 0 1-4.274.777c-3.177 0-5.714-.937-5.714-2.091v2.503c0 1.143 2.537 2.091 5.714 2.091s5.531-.891 5.714-2a2.43 2.43 0 0 1-.491-.389h-.114zm-2.936-1.931a3.59 3.59 0 0 1-.16-2.08c-.667.092-1.339.137-2.011.137C2.537 8.586 0 7.66 0 6.506v2.503c0 1.143 2.537 2.08 5.714 2.08a14.5 14.5 0 0 0 2.434-.194c-.095-.116-.183-.238-.263-.366zM7.794 6.62c-.088-.262-.161-.529-.217-.8a2.45 2.45 0 0 0 0-.297.78.78 0 0 1 0-.217v-.171a2.4 2.4 0 0 0-.206-.423l-.194-.126c-.022-.048-.049-.094-.08-.137a1.53 1.53 0 0 1-.24-1.44.87.87 0 0 1 .926-.491 2.68 2.68 0 0 1 1.28.663c.056.05.11.104.16.16l.069.08.503.091h.114a3.05 3.05 0 0 1 .846.411l.571.48V3.58c0-1.143-2.537-2.08-5.611-2.08S0 2.437 0 3.58v1.669C0 6.391 2.537 7.34 5.714 7.34A13.86 13.86 0 0 0 8 7.146a3.05 3.05 0 0 1-.229-.526h.023z"/></g><defs><clipPath id="A"><path fill="#fff" d="M0 0h16v16H0z"/></clipPath></defs></svg>
